X: 1
P: Lady Mary Murray
C: Athole Colln, arr. T. Traub 9-21-1995
M: 4/4
L: 1/8
K: G
|: E|"G"D>EG>B "D"d/c/B/A/ "G"B<G|"Am"A>Bc>B "D"A>GF>E|"G"D>EG>B "D"d/c/B/A/ "G"B<G|"Am"AB "G"G/G/G G :|
"G"d>eg>a "D"b/a/g/f/ "G"g>e| dB "D"A>dF>D|"G"d>eg>a b/a/g/f/ "C"g>e|"D"d>Bg>B "G"G/G/G G>e|
"G"d>eg>b "D"aGF>E|"G"D>EG>B "D"d/c/B/A/ "Em"B>G|"D"AB "G"G/G/G G |]
